icons/svgs/location-arrow-outline.svg

<svg width="24" height="24" viewBox="0 0 24 24" fill="none" xmlns="http://www.w3.org/2000/svg">
<path d="M12.0001 10.125C13.0157 10.125 13.8751 10.9843 13.8751 12V15.7109L17.7032 6.29685L8.28914 10.125H12.0001ZM10.1251 12H5.12508C4.50008 12 3.99226 11.6093 3.87508 11.0234C3.75789 10.4375 4.07039 9.85153 4.61726 9.61716L18.3673 3.99216C18.836 3.79685 19.3829 3.91403 19.7345 4.2656C20.086 4.61716 20.2032 5.16403 20.0079 5.63278L14.3829 19.3828C14.1485 19.9297 13.5626 20.2422 12.9766 20.125C12.3907 20.0078 12.0001 19.5 12.0001 18.875V13.875V12H10.1251Z" fill="black"/>
</svg>

<svg xmlns="http://www.w3.org/2000/svg" width="24" height="24" fill="currentColor" class="icon-location-arrow-outline" viewBox="0 0 24 24">
  <mask id="a" width="18" height="18" x="3" y="3" maskUnits="userSpaceOnUse" style="mask-type:alpha">
    <path d="M12 10.125c1.016 0 1.875.86 1.875 1.875v3.71l3.828-9.413-9.414 3.828zM10.125 12h-5c-.625 0-1.133-.39-1.25-.977a1.26 1.26 0 0 1 .742-1.406l13.75-5.625a1.26 1.26 0 0 1 1.367.274c.352.351.47.898.274 1.367l-5.625 13.75c-.234.547-.82.86-1.406.742S12 19.5 12 18.875V12z"/>
  </mask>
  <g mask="url(#a)">
    <path d="M0 0h24v24H0z"/>
  </g>
</svg>
